X:1
T: Gypsy Weaver
T: 8 x 32S 3C (Denise Peet)
P: The Gypsy Weaver
C: Liz Donaldson
C: arr. T. Traub 2-17-2004
R: Strathspey
M: 4/4
L: 1/8
K: Gm
BA \
| "Gm"G2 G2 g3 e | "Gm"d>c Bc "D"d2 BA \
| "Gm"G2 G2 g3 e | "Gm (Cm)"d>c Bc "D"A2 BA \
| "Gm"G2 G2 "Cm"g3 e | "Gm"d>c Bc d2 GA \
| "Gm"B3 c "F"A3 B | "Gm"G6 |]
GA \
| "D"^F3 A d3 c | "Gm"B>A GA B2 Bc \
| "F"A3 c f3 e | "Bb"d6 cB \
| "F"A2 A2 "D"d3 c | "Gm"B>A GA B2 GA \
| "Gm" B3 c "F"A3 B |1 "Eb"G3 A "D"^F2 :|2 "Gm" G6 |]
